X:1
T:Nothing Else
C:
S:film "the Nephew"
N:I transcribed this using an A whistle. written in D fingering.
N:Possibly composed by film scorer Stephen McKeon, who "renders folk melodies"
N:according to one review.
Z: Lesl Harker <lmh@RCONS.COM> irtrad-l 2001-8-20
M:6/8
Q:3/8=60
K:D
d6 | c4 dc | B4 A2 | B4 c2 | d4 ed | c4 dc | BA F4 | -F3z F2 |
{F}B6 | {B}c4 dc | B4 A2 | B4 A2 | {BA}F6 | -F4 DE | EF F4 | -F4 ED | D6 | -D6 |]
